packages/kaspersky-hexa-ui-icons/src/iconsSVGs/16/NetflixColor.svg

<svg width="16" height="16" viewBox="0 0 16 16" fill="none" xmlns="http://www.w3.org/2000/svg">
<path d="M13.7125 1H2.28748C1.57642 1 1 1.57642 1 2.28748V13.7125C1 14.4236 1.57642 15 2.28748 15H13.7125C14.4236 15 15 14.4236 15 13.7125V2.28748C15 1.57642 14.4236 1 13.7125 1Z" fill="black"/>
<path fill-rule="evenodd" clip-rule="evenodd" d="M8.75093 3.25806L8.74724 5.35673L8.74353 7.4554L8.57086 6.96821C8.5708 6.96804 8.57059 6.96742 8.57053 6.96726L8.34741 11.6395C8.56678 12.259 8.68432 12.5897 8.68564 12.591C8.68736 12.5927 8.81238 12.6003 8.96345 12.6078C9.42116 12.6305 9.98835 12.6791 10.4186 12.7326C10.5182 12.745 10.604 12.7513 10.6091 12.7467C10.6143 12.7421 10.6171 10.6052 10.6154 7.99817L10.6123 3.25806H9.68159H8.75093Z" fill="#B1060F"/>
<path fill-rule="evenodd" clip-rule="evenodd" d="M5.38403 3.25195V7.99686C5.38403 10.6066 5.38659 12.7443 5.38971 12.7475C5.39284 12.7506 5.55446 12.7353 5.74886 12.7136C5.94327 12.6918 6.21195 12.6647 6.34593 12.6534C6.55141 12.6361 7.16491 12.5966 7.23595 12.5962C7.25661 12.5961 7.25794 12.4894 7.26093 10.5864L7.26409 8.57683L7.41254 8.99682C7.43548 9.06173 7.44267 9.082 7.46502 9.14524L7.68808 4.47419C7.64082 4.34056 7.6656 4.41071 7.61143 4.25757C7.42918 3.74227 7.27452 3.3052 7.26774 3.28631L7.25541 3.25195H6.31973H5.38403Z" fill="#B1060F"/>
<path fill-rule="evenodd" clip-rule="evenodd" d="M5.38403 3.25195V5.91541L7.26031 10.8925C7.2605 10.7784 7.26073 10.7168 7.26093 10.5864L7.26409 8.57683L7.41254 8.99682C8.23882 11.3349 8.68275 12.5885 8.68536 12.5911C8.68709 12.5929 8.81211 12.6004 8.96318 12.6079C9.42088 12.6306 9.98808 12.6793 10.4183 12.7327C10.518 12.7451 10.6037 12.7515 10.6089 12.7468C10.6124 12.7437 10.6147 11.6959 10.6154 10.2178L8.74786 4.8488L8.74696 5.35687L8.74326 7.45555L8.57059 6.96835C8.40188 6.49231 8.28923 6.17396 7.61143 4.25757C7.42918 3.74227 7.27452 3.3052 7.26774 3.28631L7.25541 3.25195H6.31973H5.38403H5.38403Z" fill="url(#paint0_radial_21793_2491)"/>
<path fill-rule="evenodd" clip-rule="evenodd" d="M5.38403 3.25195L7.26406 8.57925V8.57683L7.4125 8.99682C8.23879 11.3349 8.68271 12.5885 8.68533 12.5911C8.68705 12.5929 8.81207 12.6004 8.96314 12.6079C9.42085 12.6306 9.98804 12.6793 10.4183 12.7327C10.5174 12.745 10.6027 12.7514 10.6087 12.7469L8.74322 7.45457V7.45554L8.57055 6.96835C8.40184 6.49231 8.28919 6.17396 7.6114 4.25757C7.42914 3.74227 7.27449 3.3052 7.26771 3.28631L7.25537 3.25195H6.31969H5.38403V3.25195Z" fill="#E50914"/>
<path fill-rule="evenodd" clip-rule="evenodd" d="M8.75093 3.25806L8.74724 5.35673L8.74353 7.4554L8.57086 6.96821C8.5708 6.96804 8.57059 6.96742 8.57053 6.96726L8.34741 11.6395C8.56678 12.259 8.68432 12.5897 8.68564 12.591C8.68736 12.5927 8.81238 12.6003 8.96345 12.6078C9.42116 12.6305 9.98835 12.6791 10.4186 12.7326C10.5182 12.745 10.604 12.7513 10.6091 12.7467C10.6143 12.7421 10.6171 10.6052 10.6154 7.99817L10.6123 3.25806H9.68159H8.75093Z" fill="#B1060F"/>
<path fill-rule="evenodd" clip-rule="evenodd" d="M5.38403 3.25195V7.99686C5.38403 10.6066 5.38659 12.7443 5.38971 12.7475C5.39284 12.7506 5.55446 12.7353 5.74886 12.7136C5.94327 12.6918 6.21195 12.6647 6.34593 12.6534C6.55141 12.6361 7.16491 12.5966 7.23595 12.5962C7.25661 12.5961 7.25794 12.4894 7.26093 10.5864L7.26409 8.57683L7.41254 8.99682C7.43548 9.06173 7.44267 9.082 7.46502 9.14524L7.68808 4.47419C7.64082 4.34056 7.6656 4.41071 7.61143 4.25757C7.42918 3.74227 7.27452 3.3052 7.26774 3.28631L7.25541 3.25195H6.31973H5.38403Z" fill="#B1060F"/>
<path fill-rule="evenodd" clip-rule="evenodd" d="M5.38403 3.25195V5.91541L7.26031 10.8925C7.2605 10.7784 7.26073 10.7168 7.26093 10.5864L7.26409 8.57683L7.41254 8.99682C8.23882 11.3349 8.68275 12.5885 8.68536 12.5911C8.68709 12.5929 8.81211 12.6004 8.96318 12.6079C9.42088 12.6306 9.98808 12.6793 10.4183 12.7327C10.518 12.7451 10.6037 12.7515 10.6089 12.7468C10.6124 12.7437 10.6147 11.6959 10.6154 10.2178L8.74786 4.8488L8.74696 5.35687L8.74326 7.45555L8.57059 6.96835C8.40188 6.49231 8.28923 6.17396 7.61143 4.25757C7.42918 3.74227 7.27452 3.3052 7.26774 3.28631L7.25541 3.25195H6.31973H5.38403H5.38403Z" fill="url(#paint1_radial_21793_2491)"/>
<path fill-rule="evenodd" clip-rule="evenodd" d="M5.38403 3.25195L7.26406 8.57925V8.57683L7.4125 8.99682C8.23879 11.3349 8.68271 12.5885 8.68533 12.5911C8.68705 12.5929 8.81207 12.6004 8.96314 12.6079C9.42085 12.6306 9.98804 12.6793 10.4183 12.7327C10.5174 12.745 10.6027 12.7514 10.6087 12.7469L8.74322 7.45457V7.45554L8.57055 6.96835C8.40184 6.49231 8.28919 6.17396 7.6114 4.25757C7.42914 3.74227 7.27449 3.3052 7.26771 3.28631L7.25537 3.25195H6.31969H5.38403V3.25195Z" fill="#E50914"/>
<defs>
<radialGradient id="paint0_radial_21793_2491" cx="0" cy="0" r="1" gradientUnits="userSpaceOnUse" gradientTransform="translate(7.91284 7.94494) rotate(-19.0982) scale(1.18571 43.4314)">
<stop/>
<stop offset="1" stop-opacity="0"/>
</radialGradient>
<radialGradient id="paint1_radial_21793_2491" cx="0" cy="0" r="1" gradientUnits="userSpaceOnUse" gradientTransform="translate(7.91284 7.94494) rotate(-19.0982) scale(1.18571 43.4314)">
<stop/>
<stop offset="1" stop-opacity="0"/>
</radialGradient>
</defs>
</svg>

<svg xmlns="http://www.w3.org/2000/svg" width="16" height="16" fill="none" viewBox="0 0 16 16"><path fill="#000" d="M13.7125 1H2.2875C1.5765 1 1 1.5764 1 2.2875v11.425C1 14.4236 1.5764 15 2.2875 15h11.425C14.4236 15 15 14.4236 15 13.7125V2.2875C15 1.5765 14.4236 1 13.7125 1"/><path fill="#b1060f" fill-rule="evenodd" d="m8.751 3.258-.004 2.099-.004 2.099-.173-.487v-.001l-.223 4.672c.219.62.337.95.338.952.002.002.127.009.278.017.458.023 1.025.071 1.455.125.1.012.185.019.191.014.005-.005.008-2.141.006-4.748l-.003-4.74H8.751m-3.367-.008v4.745c0 2.61.003 4.747.006 4.751.003.003.165-.012.359-.034s.463-.049.597-.06c.206-.017.819-.057.89-.057.021 0 .022-.107.025-2.01l.003-2.01.148.42.053.148.223-4.671-.077-.217c-.182-.515-.337-.952-.344-.971l-.012-.034z" clip-rule="evenodd"/><path fill="url(#a)" fill-rule="evenodd" d="M5.384 3.252v2.6634l1.8763 4.9771.0006-.3061.0032-2.0096.1484.42c.8263 2.3381 1.2703 3.5917 1.2729 3.5943.0017.0018.1267.0093.2778.0168.4577.0227 1.0249.0714 1.4551.1248.0997.0124.1854.0188.1906.0141.0035-.0031.0058-1.0509.0065-2.529l-1.8675-5.369-.001.508-.0036 2.0988-.1727-.4872c-.1687-.476-.2814-.7944-.9592-2.7108-.1822-.5153-.3369-.9524-.3437-.9713l-.0123-.0344H5.384" clip-rule="evenodd"/><path fill="#e50914" fill-rule="evenodd" d="m5.384 3.252 1.88 5.3273v-.0025l.1485.42c.8263 2.3381 1.2702 3.5917 1.2728 3.5943.0017.0018.1268.0093.2778.0168.4577.0227 1.025.0714 1.4552.1248.0991.0123.1844.0187.1904.0142L8.7432 7.4546v.001l-.1726-.4872c-.1688-.476-.2814-.7944-.9592-2.7108l-.3437-.9713-.0123-.0344z" clip-rule="evenodd"/><path fill="#b1060f" fill-rule="evenodd" d="m8.751 3.258-.004 2.099-.004 2.099-.173-.487v-.001l-.223 4.672c.219.62.337.95.338.952.002.002.127.009.278.017.458.023 1.025.071 1.455.125.1.012.185.019.191.014.005-.005.008-2.141.006-4.748l-.003-4.74H8.751m-3.367-.008v4.745c0 2.61.003 4.747.006 4.751.003.003.165-.012.359-.034s.463-.049.597-.06c.206-.017.819-.057.89-.057.021 0 .022-.107.025-2.01l.003-2.01.148.42.053.148.223-4.671-.077-.217c-.182-.515-.337-.952-.344-.971l-.012-.034z" clip-rule="evenodd"/><path fill="url(#b)" fill-rule="evenodd" d="M5.384 3.252v2.6634l1.8763 4.9771.0006-.3061.0032-2.0096.1484.42c.8263 2.3381 1.2703 3.5917 1.2729 3.5943.0017.0018.1267.0093.2778.0168.4577.0227 1.0249.0714 1.4551.1248.0997.0124.1854.0188.1906.0141.0035-.0031.0058-1.0509.0065-2.529l-1.8675-5.369-.001.508-.0036 2.0988-.1727-.4872c-.1687-.476-.2814-.7944-.9592-2.7108-.1822-.5153-.3369-.9524-.3437-.9713l-.0123-.0344H5.384" clip-rule="evenodd"/><path fill="#e50914" fill-rule="evenodd" d="m5.384 3.252 1.88 5.3273v-.0025l.1485.42c.8263 2.3381 1.2702 3.5917 1.2728 3.5943.0017.0018.1268.0093.2778.0168.4577.0227 1.025.0714 1.4552.1248.0991.0123.1844.0187.1904.0142L8.7432 7.4546v.001l-.1726-.4872c-.1688-.476-.2814-.7944-.9592-2.7108l-.3437-.9713-.0123-.0344z" clip-rule="evenodd"/><defs><radialGradient id="a" cx="0" cy="0" r="1" gradientTransform="rotate(-19.098 27.57 -19.546)scale(1.18571 43.4314)" gradientUnits="userSpaceOnUse"><stop/><stop offset="1" stop-opacity="0"/></radialGradient><radialGradient id="b" cx="0" cy="0" r="1" gradientTransform="rotate(-19.098 27.57 -19.546)scale(1.18571 43.4314)" gradientUnits="userSpaceOnUse"><stop/><stop offset="1" stop-opacity="0"/></radialGradient></defs></svg>
